X:32
T:Icey Blue Days
R:pipe reel
C:Jerry Holland
O:Cape Breton Island
S:http://www.cranfordpub.com
D:Crystal Clear: Jerry Holland, Celtic Colours: Ceilidh 2000
B:Jerry Holland the 2nd Collection, 2000
Z:psc, (re-formatted,updated 9/19/04)
N:http://www.jerryholland.com
H:                                                        copyrights Fiddlesticksmusic, SOCAN
L:1/8
Q:333
M:C|
K:Ador
a|edBd eAAg|dBAB dGGB|AGEG ABdf|egfa gedg|
edBd eAAg|dBAB dGGB|AGEG ABde|egGA BAA:|
|:a|bagd eaab|aged eggb|agfd e/e/e ge|dege dBAG|
bagd eaab|aged eggb|agfd e/e/e ge|dBGA BAA:|
